svg/emoji_u1f50b.svg

<svg width="128" height="128" xmlns="http://www.w3.org/2000/svg"><path d="M35.52 21.24l4.81 92.47c0 7.82 10.6 14.15 23.67 14.15 13.07 0 23.66-6.33 23.66-14.15l4.81-92.47H35.52z" fill="#ed6c30"/><ellipse cx="64" cy="20.43" rx="22.38" ry="12.12" fill="#fff"/><path d="M64 4.22c-15.73 0-28.48 7.62-28.48 17.03 0 9.4 12.75 17.02 28.48 17.02 15.72 0 28.48-7.62 28.48-17.02 0-9.41-12.76-17.03-28.48-17.03zm0 28.33c-12.36 0-22.38-5.43-22.38-12.12 0-6.69 10.02-12.12 22.38-12.12s22.38 5.43 22.38 12.12c0 6.7-10.02 12.12-22.38 12.12z" fill="#78a3ad"/><path d="M75.13 10.22C72.16 8.65 68.27 7.7 64 7.7c-4.27 0-8.16.95-11.13 2.52h-5.74v7.15h.03c-.01.14-.03.27-.03.41 0 5.57 7.55 10.08 16.87 10.08 9.09 0 16.47-4.3 16.83-9.68h.03v-7.97h-5.73z" fill="#999"/><path d="M75.13 10.22C72.16 8.65 68.27 7.7 64 7.7c-4.27 0-8.16.95-11.13 2.52h-5.74v7.15h.03c-.01.14-.03.27-.03.41 0 5.57 7.55 10.08 16.87 10.08 9.09 0 16.47-4.3 16.83-9.68h.03v-7.97h-5.73z" fill="#78a3ad"/><ellipse cx="64" cy="9.74" rx="10.95" ry="5.93" fill="#fff"/><path d="M64 .14c-9.32 0-16.87 4.51-16.87 10.09 0 5.57 7.55 10.08 16.87 10.08 9.31 0 16.87-4.51 16.87-10.08C80.87 4.65 73.31.14 64 .14zm0 15.53c-6.05 0-10.95-2.65-10.95-5.93S57.95 3.81 64 3.81c6.05 0 10.95 2.65 10.95 5.93 0 3.27-4.9 5.93-10.95 5.93z" fill="#78a3ad"/><path d="M74.91 52.43c-.83-1.85-3.03-2.25-4.84-2.39-.67-.05-1.72.15-1.86-.78-.05-.35-.09-.7-.12-1.05-.06-.53-.08-1.06-.17-1.58-.15-.9-.7-1.91-1.43-2.64-.49-.49-1.08-.86-1.69-.99-.97-.2-2.07-.1-2.99.31-1.89.85-2.25 3.09-2.4 4.93-.03.37-.02.73-.05 1.09-.02.25-.09.49-.32.62a.87.87 0 0 1-.32.11l-.81.09c-.4.04-.81.06-1.21.12-.94.15-2.1.53-2.84 1.1-.64.48-1.22 1.14-1.42 1.91-.27 1.05-.26 2.23.25 3.21.96 1.84 3.11 2.18 4.98 2.32.46.03 1.11-.09 1.49.25.25.23.24.65.28.96.05.5.12 1 .2 1.5.15.94.53 2.1 1.1 2.84.48.64 1.14 1.22 1.91 1.41 1.05.27 2.23.26 3.21-.25 1.84-.96 2.18-3.11 2.32-4.98.03-.35-.01-.76.08-1.1.15-.62.89-.58 1.37-.63.65-.07 1.31-.16 1.96-.27.9-.16 1.91-.7 2.64-1.43.49-.5.86-1.08.99-1.69.21-.97.1-2.08-.31-2.99zM72.78 113.31c.42-.42.74-.92.85-1.45.18-.84.08-1.79-.27-2.57-.95-2.12-3.88-2.02-5.83-2.16-3.25-.23-6.61-.21-9.83.3-.81.13-1.8.46-2.44.94-.55.41-1.05.98-1.22 1.64-.23.9-.22 1.92.22 2.76.82 1.58 2.67 1.87 4.28 2 3.82.29 8.18.43 11.97-.23.78-.14 1.65-.6 2.27-1.23z" fill="#fff"/></svg>

<?xml version="1.0" encoding="UTF-8" standalone="no"?>
<!DOCTYPE svg PUBLIC "-//W3C//DTD SVG 1.1//EN" "http://www.w3.org/Graphics/SVG/1.1/DTD/svg11.dtd">
<svg width="100%" height="100%" viewBox="0 0 128 128" version="1.1" xmlns="http://www.w3.org/2000/svg" xmlns:xlink="http://www.w3.org/1999/xlink" xml:space="preserve" xmlns:serif="http://www.serif.com/" style="fill-rule:evenodd;clip-rule:evenodd;stroke-linejoin:round;stroke-miterlimit:2;">
    <path d="M35.52,21.24L40.33,113.71C40.33,121.53 50.93,127.86 64,127.86C77.07,127.86 87.66,121.53 87.66,113.71L92.47,21.24L35.52,21.24Z" style="fill:rgb(129,206,80);fill-rule:nonzero;"/>
    <ellipse cx="64" cy="20.43" rx="22.38" ry="12.12" style="fill:white;"/>
    <path d="M64,4.22C48.27,4.22 35.52,11.84 35.52,21.25C35.52,30.65 48.27,38.27 64,38.27C79.72,38.27 92.48,30.65 92.48,21.25C92.48,11.84 79.72,4.22 64,4.22ZM64,32.55C51.64,32.55 41.62,27.12 41.62,20.43C41.62,13.74 51.64,8.31 64,8.31C76.36,8.31 86.38,13.74 86.38,20.43C86.38,27.13 76.36,32.55 64,32.55Z" style="fill:rgb(120,163,173);fill-rule:nonzero;"/>
    <path d="M75.13,10.22C72.16,8.65 68.27,7.7 64,7.7C59.73,7.7 55.84,8.65 52.87,10.22L47.13,10.22L47.13,17.37L47.16,17.37C47.15,17.51 47.13,17.64 47.13,17.78C47.13,23.35 54.68,27.86 64,27.86C73.09,27.86 80.47,23.56 80.83,18.18L80.86,18.18L80.86,10.21L75.13,10.21L75.13,10.22Z" style="fill:rgb(153,153,153);fill-rule:nonzero;"/>
    <path d="M75.13,10.22C72.16,8.65 68.27,7.7 64,7.7C59.73,7.7 55.84,8.65 52.87,10.22L47.13,10.22L47.13,17.37L47.16,17.37C47.15,17.51 47.13,17.64 47.13,17.78C47.13,23.35 54.68,27.86 64,27.86C73.09,27.86 80.47,23.56 80.83,18.18L80.86,18.18L80.86,10.21L75.13,10.21L75.13,10.22Z" style="fill:rgb(120,163,173);fill-rule:nonzero;"/>
    <ellipse cx="64" cy="9.74" rx="10.95" ry="5.93" style="fill:white;"/>
    <path d="M64,0.14C54.68,0.14 47.13,4.65 47.13,10.23C47.13,15.8 54.68,20.31 64,20.31C73.31,20.31 80.87,15.8 80.87,10.23C80.87,4.65 73.31,0.14 64,0.14ZM64,15.67C57.95,15.67 53.05,13.02 53.05,9.74C53.05,6.46 57.95,3.81 64,3.81C70.05,3.81 74.95,6.46 74.95,9.74C74.95,13.01 70.05,15.67 64,15.67Z" style="fill:rgb(120,163,173);fill-rule:nonzero;"/>
    <path d="M74.91,52.43C74.08,50.58 71.88,50.18 70.07,50.04C69.4,49.99 68.35,50.19 68.21,49.26C68.16,48.91 68.12,48.56 68.09,48.21C68.03,47.68 68.01,47.15 67.92,46.63C67.77,45.73 67.22,44.72 66.49,43.99C66,43.5 65.41,43.13 64.8,43C63.83,42.8 62.73,42.9 61.81,43.31C59.92,44.16 59.56,46.4 59.41,48.24C59.38,48.61 59.39,48.97 59.36,49.33C59.34,49.58 59.27,49.82 59.04,49.95C58.942,50.007 58.833,50.045 58.72,50.06L57.91,50.15C57.51,50.19 57.1,50.21 56.7,50.27C55.76,50.42 54.6,50.8 53.86,51.37C53.22,51.85 52.64,52.51 52.44,53.28C52.17,54.33 52.18,55.51 52.69,56.49C53.65,58.33 55.8,58.67 57.67,58.81C58.13,58.84 58.78,58.72 59.16,59.06C59.41,59.29 59.4,59.71 59.44,60.02C59.49,60.52 59.56,61.02 59.64,61.52C59.79,62.46 60.17,63.62 60.74,64.36C61.22,65 61.88,65.58 62.65,65.77C63.7,66.04 64.88,66.03 65.86,65.52C67.7,64.56 68.04,62.41 68.18,60.54C68.21,60.19 68.17,59.78 68.26,59.44C68.41,58.82 69.15,58.86 69.63,58.81C70.28,58.74 70.94,58.65 71.59,58.54C72.49,58.38 73.5,57.84 74.23,57.11C74.72,56.61 75.09,56.03 75.22,55.42C75.43,54.45 75.32,53.34 74.91,52.43ZM72.78,113.31C73.2,112.89 73.52,112.39 73.63,111.86C73.81,111.02 73.71,110.07 73.36,109.29C72.41,107.17 69.48,107.27 67.53,107.13C64.28,106.9 60.92,106.92 57.7,107.43C56.89,107.56 55.9,107.89 55.26,108.37C54.71,108.78 54.21,109.35 54.04,110.01C53.81,110.91 53.82,111.93 54.26,112.77C55.08,114.35 56.93,114.64 58.54,114.77C62.36,115.06 66.72,115.2 70.51,114.54C71.29,114.4 72.16,113.94 72.78,113.31Z" style="fill:white;fill-rule:nonzero;"/>
</svg>
